X:734
T:Polska efter Enninger
T:("Kära min mor ni bannar inte mej", SvL Skåne nr. 537)
C:John Enninger
R:Polska
Z:Patrik Månsson, 2008-11-06
O:Höör, Skåne
S:Svenska Låtar Skåne
B:Svenska Låtar Skåne
B:Omtyckta Skånska Allspelslåtar
N:Upptecknad 1875 efter J. Bruun och sjungen av gumman Johannes Ivartsson, Särslöv, kyrkoherde I. Johanssons i Ivetofta nmor, född 1796. (J.E.) Kopia finns på www.smus-.se, dvs Folkmusikkommissionen och spelmansböcker-Ske 30- IIa:26.
M:3/4
L:1/8
K:A

|: B2 G>A B>c | A>A A>B G>A | B2 G>A B>c | A2 G2 z2 :|
|: E>E F>F G>G | E2 F>F G2 | E2 F>F G>G | E2 F>F G2 |
B2 A>A G>G | B2 A>A G>G | B2 A>A G>G | F2 E2 z2 :|

(:musicend:)
Text: "Kära min mor ni bannar inte mej[[<<]]
för ja' är så sent på kvällen.[[<<]]
Gossarna hålla mycket å mej,[[<<]]
å därför var ja' så länge.[[<<]]
Spelemannen spelte fiol å dans,[[<<]]
gossarna dansa, dansa i dans.[[<<]]
De' gjorde ja', å de' gick så bra,[[<<]]
därför var ja' så länge."
(:music:)
